X:660
T:Vals # 660
S:efter Anders Gustaf Andersson
B:Sörmlands musikarkiv - Olof Anderssons uppteckningar 1936, nr 660
O:Mörkö, Södermanland
R:Vals
M:3/4
L:1/8
Q:160
K:F
FA|:c4B2|(Ac) (fc) a2| c2 (eg) (bg)| (fe) (fg) (af)| c4B2| (Ac) (fc) a2|
c2 (eg) bg| f2z2 ef:| (bg) ec B2| (Ac) (fc) a2| c2 (eg) bg| fe fg af|
(bg) ec B2| (Ac) fc a2| c2 (eg) bg| f6 :|

